!!!COM: Bach, Johann Sebastian
!!!OTL@@DE: 92. O Jesu Christ, du h&ouml;chstes Gut
!!!OTL@EN: O Jesus Christ, Thou highest good
!!!SCA: BWV 168.6
**kern	**kern	**kern	**kern
*staff2	*staff2	*staff1	*staff1
*Iorgan	*Iorgan	*Iorgan	*Iorgan
*>[A,A,B]	*>[A,A,B]	*>[A,A,B]	*>[A,A,B]
*>norep[A,B]	*>norep[A,B]	*>norep[A,B]	*>norep[A,B]
*>A	*>A	*>A	*>A
!bass	!tenor	!alto	!sprno
*clefF4	*clefF4	*clefG2	*clefG2
*k[f#c#]	*k[f#c#]	*k[f#c#]	*k[f#c#]
*met(C)	*met(C)	*met(C)	*met(C)
*M4/4	*M4/4	*M4/4	*M4/4
*MM60	*MM60	*MM60	*MM60
4B\	4d/	4f#\	4b/
=1	=1	=1	=1
4c#\	8c#/L	8e\L	4b/
.	8d/J	8f#\J	.
4C#\	4e/	4g\	4a#/
4D\	8d/L	4f#\	4b/
.	8c#/J	.	.
4E\	8B/L	4g\	4cc#/
.	8A#/J	.	.
=2	=2	=2	=2
8F#\L	8B/L	4f#\	4dd/
8E\J	8c#/J	.	.
4F#\	4A#/	8f#\L	4cc#/
.	.	8e\J	.
4BB;\	4B;/	4d;\	4b;/
4E\	4G#/	4e\	4b/
=3	=3	=3	=3
4AA\	4A/	8e\L	4cc#/
.	.	8f#\J	.
4A\	4e/	4g\	4cc#/
8d\L	8d/L	4f#\	4ff#/
8c#\	8e/J	.	.
8B\	4f#/	4cc#\	4ee/
8A#\J	.	.	.
=4	=4	=4	=4
4B\	4.f#/	8cc#\L	2dd/
.	.	8a#\J	.
4BB\	.	4b\	.
.	8e#/	.	.
4F#;\	4f#;/	4a#;\	4cc#;/
=:|!	=:|!	=:|!	=:|!
*>B	*>B	*>B	*>B
4D\	4f#/	4an\	4ff#/
=5	=5	=5	=5
4E\	4B/	8a\L	4ee/
.	.	8g#\J	.
8F#\L	8f#/L	8a\L	4dd/
8G#\J	8e/J	8b\J	.
4A\	8e/L	4a\	4cc#/
.	8d/J	.	.
4A#\	4c#/	8gn\L	4ee/
.	.	8f#\J	.
=6	=6	=6	=6
!!linebreak: 2
4B\	8c#/L	4f#\	4dd/
.	8B/J	.	.
4F#\	8B/L	4f#\	4cc#/
.	8A#/J	.	.
4BB;\	4d;/	4f#;\	4b;/
4B\	4B/	8f#\L	4dd/
.	.	8g#\J	.
=7	=7	=7	=7
8A\L	4e/	4a\	4cc#/
8G#\	.	.	.
8F#\	8d/L	4g#\	4b/
8E#\J	8c#/J	.	.
4.F#\	8c#/L	4f#\	8a/L
.	8B/J	.	8g#/J
.	8A/L	4c#\	8f#/L
8En\	8G#/J	.	8g#/J
=8	=8	=8	=8
8D\L	8F#/L	4f#\	4a/
8C#\J	8A/J	.	.
4BB\	4d/	4g#\	4b/
4AA;\	4e;/	4a;\	4cc#;/
4A\	4e/	8a\L	4cc#/
.	.	8gn\J	.
=9	=9	=9	=9
4B\	8d/L	8f#\L	4dd/
.	8g/J	8b\J	.
4c#\	8f#/L	8a\L	4ee/
.	8e/J	8g\J	.
8d\L	4d/	[2f#\	4.ff#/
8c#\J	.	.	.
8B\L	[4c#/	.	.
8A#\J	.	.	8ee/
=10	=10	=10	=10
8B\L	8c#/L]	4f#\]	4dd/
8A\J	8F#/J	.	.
8G\L	2B/	8e\L	8ee/L
8F#\J	.	8f#\J	8dd/J
4E\	.	4g\	2cc#/
4F#\	4A#/	8f#\L	.
.	.	8e\J	.
=11	=11	=11	=11
2.BB;\	2.F#;/	2.d#;\	2.b;/
==	==	==	==
*-	*-	*-	*-
!!!ENC: Craig Stuart Sapp
!!!END: 2004/12/06/
!!chor2scor: -l 2 -s 0.6 -o %b.pmx
